static/nodeIcons/programmingL/haskell.svg

<?xml version="1.0" standalone="no"?><!DOCTYPE svg PUBLIC "-//W3C//DTD SVG 1.1//EN" "http://www.w3.org/Graphics/SVG/1.1/DTD/svg11.dtd"><svg t="1508819941863" class="icon" style="" viewBox="0 0 1024 1024" version="1.1" xmlns="http://www.w3.org/2000/svg" p-id="2012" xmlns:xlink="http://www.w3.org/1999/xlink" width="200" height="200"><defs><style type="text/css"></style></defs><path d="M421.826 151.296L902.76 872.704h-180.346l-150.29-225.434-150.298 225.434h-180.356l240.472-360.712L241.47 151.296h180.356z m-240.47 0H1l240.47 360.694L1 872.704h180.356l240.47-360.712L181.356 151.296z m440.86 210.414l80.16 120.23H1023v-120.24l-400.784 0.01z m200.394 300.586H1023v-120.248l-280.542 0.018 80.152 120.23z" fill="#db639b" p-id="2013"></path></svg>

<svg class="icon" viewBox="0 0 1024 1024" xmlns="http://www.w3.org/2000/svg" width="200" height="200"><defs><style/></defs><path d="M421.826 151.296L902.76 872.704H722.414L572.124 647.27 421.826 872.704H241.47l240.472-360.712L241.47 151.296h180.356zm-240.47 0H1L241.47 511.99 1 872.704h180.356l240.47-360.712-240.47-360.696zm440.86 210.414l80.16 120.23H1023V361.7l-400.784.01zM822.61 662.296H1023V542.048l-280.542.018 80.152 120.23z" fill="#db639b"/></svg>
